X: 442	% 127
T: Name Unknown Quadrille
S: Viola Ruth "Pioneer Western Folk Tunes" 1948 p.44 #2
R: jig
Z: 2019 John Chambers <jc:trillian.mit.edu>
M: 6/8
L: 1/8
K: D
V: 1 name="127"
(d/e/) |\ 
fed AFA | BGB AFA | fed AFA | Bdc d2(d/e/) |\ 
fed AFA | BGB AFA | fed AFA | Bdc d2 :| 
|: e |\ 
faa  eaa | ded cBA | faa eaa | ^gfg a3 |\ 
b=gb afa | geg fde | fed AFA | Bdc d2 :| 
